X: 1
T:Matt the Trasher
T:Holly Bush
S:Alan Kelly
D:Alan Kelly:  Out of the Blue
M:C|
L:1/8
K:A
[| B2 GB EBGB | Acef gfec | dA (3AAA FA (3AAA | egfe dBGA |
 B2 GB EBGB | Acef gfec | dA  (3AAA  Bgfe | d2 BA BG E2 |
B2 GB EBGB|  Acef gfec| dA (3AAA FAEA | D3 A BAGA|
B2 GB EBGB| Acef gfec| dA (3AAA Bgfe | d2 BA BG E2||
|:Beef efga | beef edBc | Ad{e}dc defa| bafd edBA|
Beef efga| beef edBc | ~d3 e f2 ed| B2 AF E4:||
W: Version by Alan Kelly, Out of the Blue, July 1994
